components/icon/svg/24/action_swap-horizontal.svg

<?xml version="1.0" encoding="UTF-8"?>
<svg width="24px" height="24px" viewBox="0 0 24 24" version="1.1" xmlns="http://www.w3.org/2000/svg" xmlns:xlink="http://www.w3.org/1999/xlink">
    <!-- Generator: Sketch 64 (93537) - https://sketch.com -->
    <title>ic-db_action_swap-horizontal_24</title>
    <desc>Created with Sketch.</desc>
    <g id="Symbols:Icon" stroke="none" stroke-width="1" fill="none" fill-rule="evenodd">
        <g id="24dp-Icon/Action/Swap-Horizontal" fill="#282D37">
            <path d="M7.0216,2 C6.7006,2 6.4767,2.08585 6.2812,2.28125 L2.2812,6.28125 C2.0938,6.46875 2,6.75 2,7 C2,7.25 2.0945,7.49927 2.2812,7.6875 L6.2812,11.71875 C6.4842,11.92327 6.75,12 7,12 C7.5625,12 8,11.53125 8,11 C8,10.75 7.9062,10.5 7.7188,10.3125 L5.4062,8 L14,8 C14.5625,8 15,7.53125 15,7 C15,6.4375 14.5625,6 14,6 L5.4062,6 L7.7188,3.6875 C7.9076,3.49864 8,3.25 8,3 C8,2.46875 7.5938,2 7.0216,2 Z M17,12 C16.4375,12 16,12.4375 16,13 C16,13.25 16.1102,13.48239 16.3125,13.6875 L18.5938,16 L10,16 C9.4688,16 9,16.4375 9,17 C9,17.53125 9.4688,18 10,18 L18.5938,18 L16.3125,20.3125 C16.1102,20.51761 16,20.75 16,21 C16,21.5625 16.4375,22 17,22 C17.25,22 17.515,21.92248 17.7188,21.71875 L21.7188,17.71875 C21.9225,17.51502 22,17.25 22,17 C22,16.75 21.9225,16.48498 21.7188,16.28125 L17.7188,12.28125 C17.515,12.07752 17.25,12 17,12 Z" id="🎨-Color"></path>
        </g>
    </g>
</svg>

<svg width="24" height="24" xmlns="http://www.w3.org/2000/svg"><path d="M7.022 2c-.321 0-.545.086-.74.281l-4 4A1.043 1.043 0 002 7c0 .25.095.5.281.688l4 4.03A.995.995 0 007 12c.563 0 1-.469 1-1a.97.97 0 00-.281-.688L5.406 8H14c.563 0 1-.469 1-1 0-.563-.438-1-1-1H5.406L7.72 3.687A.966.966 0 008 3c0-.531-.406-1-.978-1zM17 12c-.563 0-1 .438-1 1 0 .25.11.482.313.688L18.593 16H10c-.531 0-1 .438-1 1 0 .531.469 1 1 1h8.594l-2.282 2.313c-.202.205-.312.437-.312.687 0 .563.438 1 1 1a1 1 0 00.719-.281l4-4A1 1 0 0022 17a1 1 0 00-.281-.719l-4-4A1 1 0 0017 12z" fill="#282D37" fill-rule="evenodd"/></svg>
